X:1
T:Title
%%score { 1 | 2 }
L:1/8
M:3/4
K:Ab
V:1 treble nm="Grand Piano"
V:2 bass 
V:1
 z2 z2[Q:1/4=100] [CE]>[CE] | [CE]3 [CE] [DF]>[CE] | [CE] [CA]3 [CA]>[CA] | [EG]3 [EB] [=Dc]>[DB] | %4
[M:2/4] B4 |[M:1/4] E>E |[M:3/4] [CE]3 [CE] [DF]>[CE] | [CE] [CA]3 [EB]>[_Gc] | %8
 [Fd]3 [A,DF] [DG]>[DEB] |[M:2/4] [CEA]4 |[M:1/4] d>c |[M:3/4] c B3 [Ee]>[Ed] | [Ed] [Ec]3 A>A | %13
 G>A d2 c2 |[M:2/4] B4 |[M:1/4] c>B |[M:3/4] A3 A [GB]>c | [Fe] [Fd]3 [EFc]>[DFB] | %18
 A>G F2 G2[Q:1/4=94][Q:1/4=88][Q:1/4=81] |[M:2/4] [CEA]4 |] %20
V:2
 z2 z2 [A,,A,]>[A,,A,] | [A,,A,]3 [A,,A,] [A,,A,]>[A,,A,] | [A,,A,] [A,,E,]3 [A,,A,]>[A,,A,] | %3
 [E,B,]3 [E,G,] [B,,F,]>[B,,A,] |[M:2/4] [E,G,E]4 |[M:1/4] [E,G,D]>[E,G,D] | %6
[M:3/4] [A,,A,]3 [A,,A,] [A,,A,]>[A,,A,] | [A,,A,] [A,,A,]3 [E,G,]>[A,,A,] | [D,A,]3 D, E,>E, | %9
[M:2/4] A,,4 |[M:1/4] [E,G,E]>[E,A,E] |[M:3/4] [E,A,E] [E,G,E]3 [C,A,]>[B,,G,] | %12
 [A,,A,] [A,,A,]3 [A,CE]>[A,CE] | [E,B,E]>[E,CE] [G,B,E]2 [A,E]2 |[M:2/4] [E,G,E]4 | %15
[M:1/4] [A,E]>[A,DE] |[M:3/4] [A,CE]3 [A,CE] [E,E]>[A,_G] | [D,A,] [D,A,]3 D,>D, | %18
 [E,CE]>[E,B,E] [E,G,D]2 [E,DE]2 |[M:2/4] [A,,E,]4 |] %20

